img/union-14.svg

<svg fill="none" height="29" viewBox="0 0 30 29" width="30" xmlns="http://www.w3.org/2000/svg"><path d="m1.26074 28.5762h-.368259v.3682h.368259zm13.99396-27.619621c7.5252-.000001 13.6256 6.100421 13.6256 13.625621h.7366c0-7.93197-6.4302-14.362144-14.3622-14.362144zm-13.6257 13.625621c0-7.5252 6.10042-13.625621 13.6257-13.625621v-.736523c-7.93205 0-14.36222 6.430174-14.36222 14.362144zm0 13.994v-13.994h-.73652l.000001 13.994zm13.6257-.3683h-13.99396v.7365h13.99396zm13.6256-13.6257c0 7.5253-6.1004 13.6257-13.6256 13.6257v.7365c7.932 0 14.3622-6.4301 14.3622-14.3622z" fill="#5b57ca"/></svg>

<svg width="30" height="29" viewBox="0 0 30 29" fill="none" xmlns="http://www.w3.org/2000/svg">
<path d="M1.26074 28.5762L0.892481 28.5762L0.892481 28.9444L1.26074 28.9444L1.26074 28.5762ZM15.2547 0.956579C22.7799 0.956578 28.8803 7.057 28.8803 14.5822L29.6169 14.5822C29.6169 6.65023 23.1867 0.220056 15.2547 0.220056L15.2547 0.956579ZM1.629 14.5822C1.629 7.057 7.72942 0.956579 15.2547 0.956579L15.2547 0.220056C7.32265 0.220056 0.89248 6.65023 0.89248 14.5822L1.629 14.5822ZM1.629 28.5762L1.629 14.5822L0.89248 14.5822L0.892481 28.5762L1.629 28.5762ZM15.2547 28.2079L1.26074 28.2079L1.26074 28.9444L15.2547 28.9444L15.2547 28.2079ZM28.8803 14.5822C28.8803 22.1075 22.7799 28.2079 15.2547 28.2079L15.2547 28.9444C23.1867 28.9444 29.6169 22.5143 29.6169 14.5822L28.8803 14.5822Z" fill="#5B57CA"/>
</svg>
